svgs/fig.svg

<svg width="192" height="192" viewBox="0 0 192 192" fill="none" xmlns="http://www.w3.org/2000/svg">
<path d="M90.046 66.7241V129.667" stroke="black" stroke-width="12" stroke-linecap="round" stroke-linejoin="round"/>
<path d="M170 65.8736V146.287C170 154.019 163.732 160.287 156 160.287H109.609" stroke="black" stroke-width="12" stroke-linecap="round" stroke-linejoin="round"/>
<path d="M140.23 124.563H142.782C157.814 124.563 170 112.377 170 97.3448C170 82.3125 157.814 70.1264 142.782 70.1264H140.23C125.198 70.1264 113.011 82.3125 113.011 97.3448C113.011 112.377 125.198 124.563 140.23 124.563Z" stroke="black" stroke-width="12" stroke-linecap="round" stroke-linejoin="round"/>
<path d="M67.0805 72.6782H55.1724C36.8518 72.6782 22 87.53 22 105.851M22 130.517V54.8161C22 41.6628 32.6628 31 45.8161 31H92.5977" stroke="black" stroke-width="12" stroke-linecap="round" stroke-linejoin="round"/>
</svg>

<svg width="192" height="192" viewBox="0 0 192 192" fill="none" xmlns="http://www.w3.org/2000/svg"><path d="M90.046 66.724v62.943M170 65.874v80.413c0 7.732-6.268 14-14 14h-46.391" stroke="#000" stroke-width="12" stroke-linecap="round" stroke-linejoin="round"/><path d="M140.23 124.563h2.552c15.032 0 27.218-12.186 27.218-27.218s-12.186-27.219-27.218-27.219h-2.552c-15.032 0-27.219 12.186-27.219 27.219 0 15.032 12.187 27.218 27.219 27.218ZM67.08 72.678H55.172C36.852 72.678 22 87.53 22 105.851m0 24.666v-75.7C22 41.662 32.663 31 45.816 31h46.782" stroke="#000" stroke-width="12" stroke-linecap="round" stroke-linejoin="round"/></svg>
